!!!OTL: ICH WOLLT WOL AUSGEHN
!!!ARE: Europa, Mitteleuropa, Oesterreich, Steiermark
!!!SCT: E2163
!!!YEM: Copyright 1995, estate of Helmut Schaffrath.
**kern
*ICvox
*Ivox
*M2/4
*k[b-]
*F:
{8g
=1
4g
8e
8c
=2
8f
8a
8cc}
{8cc
=3
8dd
8b-
8ff
8dd
=4
4cc
8r}
{8cc
=5
8dd
8b-
8ff
8dd
=6
8cc
8a
8f}
{8cc
=7
8b-
8g
8e
8g
=8
4f
8r}
==
!!!AGN: geistlich, Moral - Lied, Tod
!!!ONB: ESAC (Essen Associative Code) Database: ERK3
!!!AMT: simple duple
!!!AIN: vox
!!!EED: Helmut Schaffrath
!!!EEV: 1.0
*-
